packages/bezier-icons/icons/recipe.svg

<svg xmlns="http://www.w3.org/2000/svg" width="24" height="24" fill="none" viewBox="0 0 24 24"><path fill="#313234" d="M17 15H7v2h10z"/><path fill="#313234" fill-rule="evenodd" d="M4.5 2C3.673 2 3 2.673 3 3.5v17c0 .827.673 1.5 1.5 1.5h15c.827 0 1.5-.673 1.5-1.5v-17c0-.827-.673-1.5-1.5-1.5zM19 20H5V4h2v8l3-2.183L13 12V4h6z" clip-rule="evenodd"/></svg>

<svg width="24" height="24" viewBox="0 0 24 24" fill="none" xmlns="http://www.w3.org/2000/svg">
<path d="M17 15H7V17H17V15Z" fill="#313234"/>
<path fill-rule="evenodd" clip-rule="evenodd" d="M4.5 2C3.673 2 3 2.673 3 3.5V20.5C3 21.327 3.673 22 4.5 22H19.5C20.327 22 21 21.327 21 20.5V3.5C21 2.673 20.327 2 19.5 2H4.5ZM19 20H5V4H7V12L10 9.81714L13 12V4H19V20Z" fill="#313234"/>
</svg>
